src/symbolic/categories/applications-multimedia-symbolic.svg

<svg xmlns="http://www.w3.org/2000/svg" width="16" height="16"><path d="M9 8v4.28c-.3-.17-.64-.28-1-.28a2 2 0 1 0 2 2v-4h4v2.28c-.3-.17-.64-.28-1-.28a2 2 0 1 0 2 2V8z" fill="#444"/><path d="M1 1v15h1v-1h1v1h1v-3h1v-2H4V6h8v1h3V1h-1v1h-1V1h-1v3H4V1H3v1H2V1zm1 2h1v1H2zm11 0h1v1h-1zM2 5h1v1H2zm11 0h1v1h-1zM2 7h1v1H2zm0 2h1v1H2zm0 2h1v1H2zm0 2h1v1H2z" fill="#444"/></svg>

<svg xmlns="http://www.w3.org/2000/svg" width="16" height="16" version="1.1">
 <path style="fill:#444444" d="M 9,8 V 12.28 C 8.7,12.11 8.36,12 8,12 6.89,12 6,12.9 6,14 6,15.1 6.89,16 8,16 9.1,16 10,15.1 10,14 V 10 H 14 V 12.28 C 13.7,12.11 13.36,12 13,12 11.89,12 11,12.9 11,14 11,15.1 11.89,16 13,16 14.1,16 15,15.1 15,14 V 8 Z"/>
 <path style="fill:#444444" d="M 1,1 V 16 H 2 V 15 H 3 V 16 H 4 V 13 H 5 V 11 H 4 V 6 H 12 V 7 H 15 V 1 H 14 V 2 2 H 13 V 1 H 12 V 4 H 4 V 1 H 3 V 2 2 H 2 V 1 Z M 2,3 H 3 V 4 H 2 Z M 13,3 H 14 V 4 H 13 Z M 2,5 H 3 V 6 H 2 Z M 13,5 H 14 V 6 H 13 Z M 2,7 H 3 V 8 H 2 Z M 2,9 H 3 V 10 H 2 Z M 2,11 H 3 V 12 H 2 Z M 2,13 H 3 V 14 H 2 Z"/>
</svg>
